src/24/panel/teamviewer-indicator-away.svg

<svg xmlns="http://www.w3.org/2000/svg" width="24" height="24" version="1.1">
 <defs>
  <style id="current-color-scheme" type="text/css">
   .ColorScheme-Text { color:#dfdfdf; } .ColorScheme-Highlight { color:#4285f4; }
  </style>
 </defs>
 <g>
  <path style="fill:currentColor" class="ColorScheme-Text" d="m 20,12 c -0.0014,0.486109 -0.05073,0.971344 -0.140227,1.449146 L 18.789711,12.379384 16,15.206756 16.792824,15.999579 13,16 l 0,3.928705 c -0.331469,0.0442 -0.665605,0.06889 -1,0.07129 -4.4172959,0 -8.0000001,-3.582236 -8.0000001,-7.999532 C 3.9999999,7.5831714 7.5826942,4.0000991 12,3.9999993 16.417306,3.9999002 20,7.5827042 20,12 Z M 14,9.0000001 14,11 9.9999998,11 9.9986859,9.0009354 7,12 l 2.9999998,3 0,-2 L 14,13 l 0,2 3,-3 z M 18.793,13.792 23,18 18.793,22.207 17.3789,20.793 19.1719,19 14,18.999 l 0,-2 5.1719,0.001 -1.793,-1.794 z"/>
 </g>
</svg>

<svg xmlns="http://www.w3.org/2000/svg" width="24" height="24"><defs><style id="current-color-scheme" type="text/css">.ColorScheme-Text{color:#dfdfdf;}.ColorScheme-Highlight{color:#5294e2;}</style></defs><defs><style id="current-color-scheme" type="text/css"></style></defs><path d="M20 12c-.001.486-.05.971-.14 1.45l-1.07-1.07L16 15.206l.793.793H13v3.929A8.003 8.003 0 0 1 12 20a8 8 0 0 1 0-16c4.417 0 8 3.583 8 8zm-6-3v2h-4l-.001-2L7 12l3 3v-2h4v2l3-3zm4.793 4.792L23 18l-4.207 4.207-1.414-1.414L19.172 19 14 18.999v-2l5.172.001-1.793-1.794z" fill="currentColor" class="ColorScheme-Text"/></svg>
